X: 6
T:Kitten (#186), The
M:9/8
L:1/8
S:O'Farrell's Pocket Companion 1804-10
K:G
D|:G2 B GEE GEE|G3/2A/2G/2F/2 GEE F2 D|G2 B GEE GEE|FGA ABG FED:|
|:G2 c BGd BGd|G2 c BGd cBA|G2 c BGd BGd|ecA ABG FED:|
|:B/2c/2BA GEE GEE|B/2c/2BA GEE FED|B/2c/2BA GEE GEE|FGA ABG FED:|
|:G2 G dBG BdB|G2 G dBG ecA|GBd g3/2a/2g/2f/2 gdB|ecA ABG FED:|
|:BGE cGE dGE|cGE BGE AFD|BGE cGE dGE|d2 B ABG FED:||

